Yaru++/mimetypes/48/text-x-readme.svg

<svg height="48" viewBox="0 0 12.699375 12.699375" width="48" xmlns="http://www.w3.org/2000/svg" xmlns:xlink="http://www.w3.org/1999/xlink"><linearGradient id="a" gradientUnits="userSpaceOnUse" x1="344" x2="344" y1="62" y2="106"><stop offset="0" stop-color="#fff"/><stop offset=".125" stop-color="#fff" stop-opacity=".098039"/><stop offset=".92500001" stop-color="#fff" stop-opacity=".098039"/><stop offset="1" stop-color="#fff" stop-opacity=".498039"/></linearGradient><clipPath id="b"><path d="m335.73108 62c-8.82418 0-9.77365.90635-9.7304 9.74838v12.25162 12.25162c-.0433 8.84203.90622 9.74838 9.7304 9.74838h16.53919c8.82418 0 9.7304-.90625 9.7304-9.74838v-12.25162-12.25162c0-8.84213-.90622-9.74838-9.7304-9.74838z"/></clipPath><linearGradient id="c" gradientTransform="matrix(0 -.02997086 .02997 0 -3.039509 13.625372)" gradientUnits="userSpaceOnUse" x1="459.03448" x2="35.310345" y1="419.23337" y2="207.36522"><stop offset="0" stop-color="#f2f2f2"/><stop offset="1" stop-color="#f9f9f9"/></linearGradient><path d="m4.1621982.39685644c-.5881821 0-1.0513178.013541-1.4323995.077511-.3810845.063969-.6929229.1839555-.9213476.41184075-.2284221.22788551-.3489842.53958351-.4123567.92082881-.063373.3812456-.075744.8453924-.07286 1.4349838v3.2399529 3.241503c-.00286.5886853.00955 1.0525973.07286 1.4334333.063373.381246.1839346.692944.4123567.920829.2284247.227885.5402631.347873.9213476.411841.3810844.06397.8442174.07751 1.4323995.07751h4.3757443c.5881821 0 1.0510744-.01352 1.4313677-.07751.3802938-.064.6911798-.18439.9187608-.412357.227583-.227967.347433-.539443.411324-.920313.06389-.380868.07751-.844073.07751-1.4334333v-3.241503-3.241503c0-.5893605-.01363-1.0525643-.07751-1.4334337-.06389-.3808691-.183741-.6923443-.411324-.9203121-.227581-.22796766-.538467-.34836086-.9187608-.41235756-.3802933-.0639969-.8431856-.0775109-1.4313677-.0775109z" opacity=".1"/><path d="m4.1623596.39685644c-2.3346161 0-2.5858176.2397933-2.574375 2.57913196v3.2414149 3.2414149c-.011456 2.3393388.2397589 2.5791318 2.574375 2.5791318h4.3757787c2.3346167 0 2.5743757-.239767 2.5743757-2.5791318v-3.2414149-3.2414149c0-2.33936506-.239759-2.57913196-2.5743757-2.57913196z" fill="none" opacity=".2" stroke="#000" stroke-width=".529141"/><path d="m4.1623596.39685644c-2.3346161 0-2.5858176.2397933-2.574375 2.57913196v3.2414149 3.2414149c-.011456 2.3393388.2397589 2.5791318 2.574375 2.5791318h4.3757787c2.3346167 0 2.5743757-.239767 2.5743757-2.5791318v-3.2414149-3.2414149c0-2.33936506-.239759-2.57913196-2.5743757-2.57913196z" fill="url(#c)"/><circle cx="6.350054" cy="6.217403" fill="none" r="3.037267" stroke="#808080" stroke-linecap="square" stroke-linejoin="round" stroke-width=".275153"/><path d="m6.1380014 5.7940908v2.1165625l.4233125.0000005v-2.116563z" fill="#888"/><path d="m6.3496576 4.6299814c-.1753413.0000005-.3174843.1421425-.3174843.3174844 0 .1753418.142143.3174838.3174843.3174844.1753414-.0000006.3174844-.1421426.3174844-.3174844 0-.1753419-.142143-.3174839-.3174844-.3174844z" fill="#888"/><path d="m1.5878047 6.2174033v3.241503c-.011456 2.3393377.2397774 2.5790437 2.5743935 2.5790437h4.3757443c2.3346165 0 2.5743935-.239679 2.5743935-2.5790437v-3.241503z" fill="#fff" opacity=".2"/><path d="m6.3500704.39685644v11.64109356h2.1878721c2.3346165 0 2.5743935-.239679 2.5743935-2.5790437v-3.241503-3.241503c0-2.33936506-.239777-2.57904386-2.5743935-2.57904386z" fill="#fff" opacity=".1"/><path clip-path="url(#b)" d="m335.73108 62c-8.82418 0-9.77365.90635-9.7304 9.74838v12.25162 12.25162c-.0433 8.84203.90622 9.74838 9.7304 9.74838h16.53919c8.82418 0 9.7304-.90625 9.7304-9.74838v-12.25162-12.25162c0-8.84213-.90622-9.74838-9.7304-9.74838z" fill="none" opacity=".4" stroke="url(#a)" stroke-width="2" transform="matrix(.26457031 0 0 .26457031 -84.662116 -16.006503)"/></svg>

<?xml version="1.0" encoding="UTF-8" standalone="no"?>
<svg
   xmlns:dc="http://purl.org/dc/elements/1.1/"
   xmlns:cc="http://creativecommons.org/ns#"
   xmlns:rdf="http://www.w3.org/1999/02/22-rdf-syntax-ns#"
   xmlns:svg="http://www.w3.org/2000/svg"
   xmlns="http://www.w3.org/2000/svg"
   xmlns:xlink="http://www.w3.org/1999/xlink"
   xmlns:sodipodi="http://sodipodi.sourceforge.net/DTD/sodipodi-0.dtd"
   xmlns:inkscape="http://www.inkscape.org/namespaces/inkscape"
   width="48"
   height="48"
   version="1.1"
   viewBox="0 0 12.699375 12.699375"
   id="svg43"
   sodipodi:docname="text-x-readme.svg"
   inkscape:version="0.92.4 (5da689c313, 2019-01-14)">
  <metadata
     id="metadata47">
    <rdf:RDF>
      <cc:Work
         rdf:about="">
        <dc:format>image/svg+xml</dc:format>
        <dc:type
           rdf:resource="http://purl.org/dc/dcmitype/StillImage" />
        <dc:title></dc:title>
      </cc:Work>
    </rdf:RDF>
  </metadata>
  <sodipodi:namedview
     pagecolor="#ffffff"
     bordercolor="#666666"
     borderopacity="1"
     objecttolerance="10"
     gridtolerance="10"
     guidetolerance="10"
     inkscape:pageopacity="0"
     inkscape:pageshadow="2"
     inkscape:window-width="1222"
     inkscape:window-height="948"
     id="namedview45"
     showgrid="false"
     inkscape:zoom="13.854167"
     inkscape:cx="24"
     inkscape:cy="24"
     inkscape:window-x="83"
     inkscape:window-y="176"
     inkscape:window-maximized="0"
     inkscape:current-layer="svg43" />
  <defs
     id="defs17">
    <linearGradient
       id="linearGradient4226"
       x1="529.65503"
       x2="-35.310001"
       y1="401.58401"
       y2="119.093"
       gradientTransform="matrix(0,-0.11988932,0.11988589,0,0.36277975,292.5483)"
       gradientUnits="userSpaceOnUse">
      <stop
         style="stop-color:#f2f2f2"
         offset="0"
         id="stop2" />
      <stop
         style="stop-color:#f9f9f9"
         offset="1"
         id="stop4" />
    </linearGradient>
    <linearGradient
       id="linearGradient4358"
       x1="88"
       x2="488"
       y1="88"
       y2="488"
       gradientUnits="userSpaceOnUse">
      <stop
         style="stop-color:#000000;stop-opacity:.58823532"
         offset="0"
         id="stop7" />
      <stop
         style="stop-color:#000000;stop-opacity:0"
         offset=".88"
         id="stop9" />
      <stop
         style="stop-color:#000000"
         offset="1"
         id="stop11" />
    </linearGradient>
    <filter
       id="filter4346"
       width="1.026"
       height="1.022"
       x="-0.0099999998"
       y="-0.0099999998"
       style="color-interpolation-filters:sRGB">
      <feGaussianBlur
         stdDeviation="2.12"
         id="feGaussianBlur14" />
    </filter>
    <clipPath
       clipPathUnits="userSpaceOnUse"
       id="clipPath994">
      <path
         style="color:#000000;display:inline;overflow:visible;visibility:visible;fill:#cdcdcd;fill-opacity:1;fill-rule:nonzero;stroke:none;stroke-width:2;stroke-miterlimit:4;stroke-dasharray:none;stroke-opacity:1;marker:none;enable-background:accumulate"
         d="m 335.73108,62 c -8.82418,0 -9.77365,0.90635 -9.7304,9.74838 V 84 96.25162 c -0.0433,8.84203 0.90622,9.74838 9.7304,9.74838 h 16.53919 c 8.82418,0 9.7304,-0.90625 9.7304,-9.74838 V 84 71.74838 C 362.00067,62.90625 361.09445,62 352.27027,62 Z"
         id="path996"
         inkscape:connector-curvature="0"
         sodipodi:nodetypes="scccssscsss" />
    </clipPath>
    <clipPath
       clipPathUnits="userSpaceOnUse"
       id="clipPath994-3">
      <path
         style="color:#000000;display:inline;overflow:visible;visibility:visible;fill:#cdcdcd;fill-opacity:1;fill-rule:nonzero;stroke:none;stroke-width:2;stroke-miterlimit:4;stroke-dasharray:none;stroke-opacity:1;marker:none;enable-background:accumulate"
         d="m 335.73108,62 c -8.82418,0 -9.77365,0.90635 -9.7304,9.74838 V 84 96.25162 c -0.0433,8.84203 0.90622,9.74838 9.7304,9.74838 h 16.53919 c 8.82418,0 9.7304,-0.90625 9.7304,-9.74838 V 84 71.74838 C 362.00067,62.90625 361.09445,62 352.27027,62 Z"
         id="path996-6"
         inkscape:connector-curvature="0"
         sodipodi:nodetypes="scccssscsss" />
    </clipPath>
    <clipPath
       clipPathUnits="userSpaceOnUse"
       id="clipPath994-7">
      <path
         style="color:#000000;display:inline;overflow:visible;visibility:visible;fill:#cdcdcd;fill-opacity:1;fill-rule:nonzero;stroke:none;stroke-width:2;stroke-miterlimit:4;stroke-dasharray:none;stroke-opacity:1;marker:none;enable-background:accumulate"
         d="m 335.73108,62 c -8.82418,0 -9.77365,0.90635 -9.7304,9.74838 V 84 96.25162 c -0.0433,8.84203 0.90622,9.74838 9.7304,9.74838 h 16.53919 c 8.82418,0 9.7304,-0.90625 9.7304,-9.74838 V 84 71.74838 C 362.00067,62.90625 361.09445,62 352.27027,62 Z"
         id="path996-5"
         inkscape:connector-curvature="0"
         sodipodi:nodetypes="scccssscsss" />
    </clipPath>
    <linearGradient
       inkscape:collect="always"
       xlink:href="#linearGradient927"
       id="linearGradient1004"
       x1="344"
       y1="62"
       x2="344"
       y2="106"
       gradientUnits="userSpaceOnUse" />
    <linearGradient
       inkscape:collect="always"
       id="linearGradient927">
      <stop
         style="stop-color:#ffffff;stop-opacity:1;"
         offset="0"
         id="stop923" />
      <stop
         id="stop933"
         offset="0.125"
         style="stop-color:#ffffff;stop-opacity:0.09803922" />
      <stop
         id="stop931"
         offset="0.92500001"
         style="stop-color:#ffffff;stop-opacity:0.09803922" />
      <stop
         style="stop-color:#ffffff;stop-opacity:0.49803922"
         offset="1"
         id="stop925" />
    </linearGradient>
    <clipPath
       clipPathUnits="userSpaceOnUse"
       id="clipPath994-35">
      <path
         style="color:#000000;display:inline;overflow:visible;visibility:visible;fill:#cdcdcd;fill-opacity:1;fill-rule:nonzero;stroke:none;stroke-width:2;stroke-miterlimit:4;stroke-dasharray:none;stroke-opacity:1;marker:none;enable-background:accumulate"
         d="m 335.73108,62 c -8.82418,0 -9.77365,0.90635 -9.7304,9.74838 V 84 96.25162 c -0.0433,8.84203 0.90622,9.74838 9.7304,9.74838 h 16.53919 c 8.82418,0 9.7304,-0.90625 9.7304,-9.74838 V 84 71.74838 C 362.00067,62.90625 361.09445,62 352.27027,62 Z"
         id="path996-62"
         inkscape:connector-curvature="0"
         sodipodi:nodetypes="scccssscsss" />
    </clipPath>
    <linearGradient
       inkscape:collect="always"
       xlink:href="#linearGradient4338"
       id="linearGradient1024"
       gradientUnits="userSpaceOnUse"
       gradientTransform="matrix(0,-0.02997086,0.02997,0,-3.0395088,13.625372)"
       x1="459.03448"
       y1="419.23337"
       x2="35.310345"
       y2="207.36522" />
    <linearGradient
       inkscape:collect="always"
       id="linearGradient4338">
      <stop
         style="stop-color:#f2f2f2;stop-opacity:1"
         offset="0"
         id="stop4340" />
      <stop
         style="stop-color:#f9f9f9;stop-opacity:1"
         offset="1"
         id="stop4342" />
    </linearGradient>
  </defs>
  <path
     style="color:#000000;font-style:normal;font-variant:normal;font-weight:normal;font-stretch:normal;font-size:medium;line-height:normal;font-family:sans-serif;font-variant-ligatures:normal;font-variant-position:normal;font-variant-caps:normal;font-variant-numeric:normal;font-variant-alternates:normal;font-feature-settings:normal;text-indent:0;text-align:start;text-decoration:none;text-decoration-line:none;text-decoration-style:solid;text-decoration-color:#000000;letter-spacing:normal;word-spacing:normal;text-transform:none;writing-mode:lr-tb;direction:ltr;text-orientation:mixed;dominant-baseline:auto;baseline-shift:baseline;text-anchor:start;white-space:normal;shape-padding:0;clip-rule:nonzero;display:inline;overflow:visible;visibility:visible;opacity:0.1;isolation:auto;mix-blend-mode:normal;color-interpolation:sRGB;color-interpolation-filters:linearRGB;solid-color:#000000;solid-opacity:1;vector-effect:none;fill:#000000;fill-opacity:1;fill-rule:nonzero;stroke:none;stroke-width:0.52914065;stroke-linecap:butt;stroke-linejoin:miter;stroke-miterlimit:4;stroke-dasharray:none;stroke-dashoffset:0;stroke-opacity:1;marker:none;color-rendering:auto;image-rendering:auto;shape-rendering:auto;text-rendering:auto;enable-background:accumulate"
     d="m 4.1621982,0.39685644 c -0.5881821,0 -1.0513178,0.013541 -1.4323995,0.077511 C 2.3487142,0.53833644 2.0368758,0.65832294 1.8084511,0.88620819 1.580029,1.1140937 1.4594669,1.4257917 1.3960944,1.807037 1.3327214,2.1882826 1.3203504,2.6524294 1.3232344,3.2420208 v 3.2399529 3.241503 c -0.00286,0.5886853 0.00955,1.0525973 0.07286,1.4334333 0.063373,0.381246 0.1839346,0.692944 0.4123567,0.920829 0.2284247,0.227885 0.5402631,0.347873 0.9213476,0.411841 0.3810844,0.06397 0.8442174,0.07751 1.4323995,0.07751 h 4.3757443 c 0.5881821,0 1.0510744,-0.01352 1.4313677,-0.07751 0.3802938,-0.064 0.6911798,-0.18439 0.9187608,-0.412357 0.227583,-0.227967 0.347433,-0.539443 0.411324,-0.920313 0.06389,-0.380868 0.07751,-0.844073 0.07751,-1.4334333 v -3.241503 -3.241503 c 0,-0.5893605 -0.01363,-1.0525643 -0.07751,-1.4334337 C 11.235505,1.4261679 11.115654,1.1146927 10.888071,0.8867249 10.66049,0.65875724 10.349604,0.53836404 9.9693102,0.47436734 9.5890169,0.41037044 9.1261246,0.39685644 8.5379425,0.39685644 Z"
     id="path1020"
     inkscape:connector-curvature="0"
     sodipodi:nodetypes="sccsccccccsscccscsccsss" />
  <path
     style="color:#000000;display:inline;overflow:visible;visibility:visible;opacity:0.2;fill:none;fill-opacity:1;fill-rule:nonzero;stroke:#000000;stroke-width:0.52914065;stroke-miterlimit:4;stroke-dasharray:none;stroke-opacity:1;marker:none;enable-background:accumulate"
     d="m 4.1623596,0.39685644 c -2.3346161,0 -2.5858176,0.2397933 -2.574375,2.57913196 V 6.2174033 9.4588182 C 1.5765286,11.798157 1.8277435,12.03795 4.1623596,12.03795 h 4.3757787 c 2.3346167,0 2.5743757,-0.239767 2.5743757,-2.5791318 V 6.2174033 2.9759884 c 0,-2.33936506 -0.239759,-2.57913196 -2.5743757,-2.57913196 z"
     id="path958"
     inkscape:connector-curvature="0"
     sodipodi:nodetypes="scccssscsss" />
  <path
     style="color:#000000;display:inline;overflow:visible;visibility:visible;fill:url(#linearGradient1024);fill-opacity:1;fill-rule:nonzero;stroke:none;stroke-width:0.26457033;marker:none;enable-background:accumulate"
     d="m 4.1623596,0.39685644 c -2.3346161,0 -2.5858176,0.2397933 -2.574375,2.57913196 V 6.2174033 9.4588182 C 1.5765286,11.798157 1.8277435,12.03795 4.1623596,12.03795 h 4.3757787 c 2.3346167,0 2.5743757,-0.239767 2.5743757,-2.5791318 V 6.2174033 2.9759884 c 0,-2.33936506 -0.239759,-2.57913196 -2.5743757,-2.57913196 z"
     id="path964"
     inkscape:connector-curvature="0"
     sodipodi:nodetypes="scccssscsss" />
  <circle
     style="display:inline;opacity:1;fill:none;fill-opacity:1;stroke:#808080;stroke-width:0.27515316;stroke-linecap:square;stroke-linejoin:round;stroke-miterlimit:4;stroke-dasharray:none;stroke-dashoffset:0;stroke-opacity:1;enable-background:new"
     id="circle976"
     cx="6.3500543"
     cy="6.2174034"
     r="3.037267" />
  <path
     id="path984"
     d="m 6.1380014,5.7940908 v 2.1165625 l 0.4233125,5e-7 v -2.116563 z"
     style="color:#000000;font-style:normal;font-variant:normal;font-weight:normal;font-stretch:normal;font-size:medium;line-height:normal;font-family:sans-serif;text-indent:0;text-align:start;text-decoration:none;text-decoration-line:none;text-decoration-style:solid;text-decoration-color:#000000;letter-spacing:normal;word-spacing:normal;text-transform:none;writing-mode:lr-tb;direction:ltr;baseline-shift:baseline;text-anchor:start;white-space:normal;shape-padding:0;clip-rule:nonzero;display:inline;overflow:visible;visibility:visible;opacity:1;isolation:auto;mix-blend-mode:normal;color-interpolation:sRGB;color-interpolation-filters:linearRGB;solid-color:#000000;solid-opacity:1;fill:#888888;fill-opacity:1;fill-rule:nonzero;stroke:none;stroke-width:0.52914065;stroke-linecap:round;stroke-linejoin:round;stroke-miterlimit:4;stroke-dasharray:none;stroke-dashoffset:0;stroke-opacity:1;marker:none;color-rendering:auto;image-rendering:auto;shape-rendering:auto;text-rendering:auto;enable-background:accumulate"
     inkscape:connector-curvature="0"
     sodipodi:nodetypes="ccccc" />
  <path
     sodipodi:nodetypes="ccccc"
     inkscape:connector-curvature="0"
     style="color:#000000;font-style:normal;font-variant:normal;font-weight:normal;font-stretch:normal;font-size:medium;line-height:normal;font-family:sans-serif;text-indent:0;text-align:start;text-decoration:none;text-decoration-line:none;text-decoration-style:solid;text-decoration-color:#000000;letter-spacing:normal;word-spacing:normal;text-transform:none;writing-mode:lr-tb;direction:ltr;baseline-shift:baseline;text-anchor:start;white-space:normal;shape-padding:0;clip-rule:nonzero;display:inline;overflow:visible;visibility:visible;opacity:1;isolation:auto;mix-blend-mode:normal;color-interpolation:sRGB;color-interpolation-filters:linearRGB;solid-color:#000000;solid-opacity:1;fill:#888888;fill-opacity:1;fill-rule:nonzero;stroke:none;stroke-width:0.44447795;stroke-linecap:round;stroke-linejoin:round;stroke-miterlimit:4;stroke-dasharray:none;stroke-dashoffset:0;stroke-opacity:1;marker:none;color-rendering:auto;image-rendering:auto;shape-rendering:auto;text-rendering:auto;enable-background:accumulate"
     d="m 6.3496576,4.6299814 c -0.1753413,5e-7 -0.3174843,0.1421425 -0.3174843,0.3174844 0,0.1753418 0.142143,0.3174838 0.3174843,0.3174844 0.1753414,-6e-7 0.3174844,-0.1421426 0.3174844,-0.3174844 0,-0.1753419 -0.142143,-0.3174839 -0.3174844,-0.3174844 z"
     id="path986" />
  <path
     style="color:#000000;display:inline;overflow:visible;visibility:visible;opacity:0.2;fill:#ffffff;fill-opacity:1;fill-rule:nonzero;stroke:none;stroke-width:0.26457033;marker:none;enable-background:accumulate"
     d="m 1.5878047,6.2174033 v 3.241503 C 1.5763487,11.798244 1.8275821,12.03795 4.1621982,12.03795 h 4.3757443 c 2.3346165,0 2.5743935,-0.239679 2.5743935,-2.5790437 v -3.241503 z"
     id="path1006"
     inkscape:connector-curvature="0" />
  <path
     style="color:#000000;display:inline;overflow:visible;visibility:visible;opacity:0.1;fill:#ffffff;fill-opacity:1;fill-rule:nonzero;stroke:none;stroke-width:0.26457033;marker:none;enable-background:accumulate"
     d="M 6.3500704,0.39685644 V 12.03795 h 2.1878721 c 2.3346165,0 2.5743935,-0.239679 2.5743935,-2.5790437 v -3.241503 -3.241503 c 0,-2.33936506 -0.239777,-2.57904386 -2.5743935,-2.57904386 z"
     id="path1013"
     inkscape:connector-curvature="0" />
  <path
     transform="matrix(0.26457031,0,0,0.26457031,-84.662116,-16.006503)"
     sodipodi:nodetypes="scccssscsss"
     inkscape:connector-curvature="0"
     id="path990"
     d="m 335.73108,62 c -8.82418,0 -9.77365,0.90635 -9.7304,9.74838 V 84 96.25162 c -0.0433,8.84203 0.90622,9.74838 9.7304,9.74838 h 16.53919 c 8.82418,0 9.7304,-0.90625 9.7304,-9.74838 V 84 71.74838 C 362.00067,62.90625 361.09445,62 352.27027,62 Z"
     style="color:#000000;display:inline;overflow:visible;visibility:visible;opacity:0.4;fill:none;fill-opacity:1;fill-rule:nonzero;stroke:url(#linearGradient1004);stroke-width:2;stroke-miterlimit:4;stroke-dasharray:none;stroke-opacity:1;marker:none;enable-background:accumulate"
     clip-path="url(#clipPath994-35)" />
</svg>
